OBS Studio/Fluent Dark Grey/interact.svg

<svg width="24" height="24" fill="none" viewBox="0 0 24 24" xmlns="http://www.w3.org/2000/svg"><path d="m11.749 5.9998c1.3585 0 1.9526 0.89859 1.9997 2.3258l0.0031 0.18912v2.4864l2.8718 0.4222c0.112 0.0165 0.223 0.0398 0.3322 0.07 1.4076 0.3888 2.256 1.8041 1.9597 3.2138l-0.0411 0.1691-1.2271 4.4426c-0.1719 0.6225-0.671 1.0956-1.2927 1.2391l-0.1455 0.0272-3.061 0.4392c-0.7605 0.1092-1.4965-0.2902-1.8249-0.972l-0.0601-0.1401-0.2166-0.5717c-0.2461-0.6493-0.6513-1.2247-1.1766-1.6743l-0.20256-0.1627-1.5967-1.2014c-0.08358-0.0629-0.17254-0.1181-0.2658-0.165l-0.14296-0.0641-2.195-0.8678c-0.27356-0.1082-0.45863-0.3663-0.47332-0.66-0.03611-0.7226 0.48952-1.2463 1.4213-1.7122 0.71921-0.3596 1.7275-0.3299 3.0661 0.0434l0.27214 0.0793v-4.4501c0-1.5372 0.57835-2.5058 1.996-2.5058zm0-3.4998c3.1759 0 5.7504 2.5746 5.7504 5.7504 0 0.7933-0.1606 1.5491-0.4511 2.2366l0.1737 0.0424c-0.1489-0.0411-0.3002-0.073-0.453-0.0955l-1.2673-0.1858c0.3177-0.59555 0.4977-1.2756 0.4977-1.9977 0-2.3474-1.9029-4.2504-4.2504-4.2504-2.3474 0-4.2504 1.903-4.2504 4.2504 0 1.1787 0.47978 2.2453 1.2547 3.0153l-2.7e-4 0.415c-0.61362-0.1085-1.1681-0.1355-1.6718-0.072-0.68137-0.9444-1.0826-2.1045-1.0826-3.3583 0-3.1759 2.5746-5.7504 5.7504-5.7504z" fill="#fff"/></svg>

<svg width="24" height="24" viewBox="0 0 24 24" fill="none" xmlns="http://www.w3.org/2000/svg">
<path d="M11.7494 5.99979C13.1079 5.99979 13.702 6.89838 13.7491 8.32558L13.7522 8.5147V11.0011L16.624 11.4233C16.736 11.4398 16.847 11.4631 16.9562 11.4933C18.3638 11.8821 19.2122 13.2974 18.9159 14.7071L18.8748 14.8762L17.6477 19.3188C17.4758 19.9413 16.9767 20.4144 16.355 20.5579L16.2095 20.5851L13.1485 21.0243C12.388 21.1335 11.652 20.7341 11.3236 20.0523L11.2635 19.9122L11.0469 19.3405C10.8008 18.6912 10.3956 18.1158 9.8703 17.6662L9.66774 17.5035L8.07101 16.3021C7.98743 16.2392 7.89847 16.184 7.80521 16.1371L7.66225 16.073L5.46725 15.2052C5.19369 15.097 5.00862 14.8389 4.99393 14.5452C4.95782 13.8226 5.48345 13.2989 6.41519 12.833C7.1344 12.4734 8.1427 12.5031 9.48131 12.8764L9.75345 12.9557V8.50556C9.75345 6.9684 10.3318 5.99979 11.7494 5.99979ZM11.7494 2.5C14.9253 2.5 17.4998 5.07455 17.4998 8.25041C17.4998 9.04371 17.3392 9.79948 17.0487 10.487L17.2224 10.5294C17.0735 10.4883 16.9222 10.4564 16.7694 10.4339L15.5021 10.2481C15.8198 9.65255 15.9998 8.97251 15.9998 8.25041C15.9998 5.90297 14.0969 4 11.7494 4C9.40199 4 7.49902 5.90297 7.49902 8.25041C7.49902 9.4291 7.9788 10.4957 8.75372 11.2657L8.75345 11.6807C8.13983 11.5722 7.58531 11.5452 7.08167 11.6087C6.4003 10.6643 5.99902 9.50424 5.99902 8.25041C5.99902 5.07455 8.57357 2.5 11.7494 2.5Z" fill="white"/>
</svg>
